dist/images/icons/search.svg

<svg width="25" height="24" viewBox="0 0 25 24" fill="none" xmlns="http://www.w3.org/2000/svg">
<g clip-path="url(#clip0_6_356)">
<path d="M16.2365 14H15.4465L15.1665 13.73C16.1465 12.59 16.7365 11.11 16.7365 9.5C16.7365 5.91 13.8265 3 10.2365 3C6.64645 3 3.73645 5.91 3.73645 9.5C3.73645 13.09 6.64645 16 10.2365 16C11.8464 16 13.3264 15.41 14.4664 14.43L14.7365 14.71V15.5L19.7365 20.49L21.2264 19L16.2365 14ZM10.2365 14C7.74645 14 5.73645 11.99 5.73645 9.5C5.73645 7.01 7.74645 5 10.2365 5C12.7264 5 14.7365 7.01 14.7365 9.5C14.7365 11.99 12.7264 14 10.2365 14Z" fill="white"/>
</g>
<defs>
<clipPath id="clip0_6_356">
<rect width="24" height="24" fill="white" transform="translate(0.73645)"/>
</clipPath>
</defs>
</svg>

<svg width="25" height="24" fill="none" xmlns="http://www.w3.org/2000/svg"><g clip-path="url(#clip0_6_356)"><path d="M16.236 14h-.79l-.28-.27a6.471 6.471 0 001.57-4.23 6.5 6.5 0 10-6.5 6.5c1.61 0 3.09-.59 4.23-1.57l.27.28v.79l5 4.99 1.49-1.49-4.99-5zm-6 0c-2.49 0-4.5-2.01-4.5-4.5s2.01-4.5 4.5-4.5 4.5 2.01 4.5 4.5-2.01 4.5-4.5 4.5z" fill="#fff"/></g><defs><clipPath id="clip0_6_356"><path fill="#fff" transform="translate(.736)" d="M0 0h24v24H0z"/></clipPath></defs></svg>
